X: 185
T: Aşıka Tan
C: Abdülaziz Efendi (Hekimbaşı)
O: Turkey
F: http://compmusic.upf.edu/node/140
N: huzzam--beste--agircenber--asika_tan--hekimbasi_abdulaziz_efendi
N: makam= huzzam
N: form= beste
N: usul= agircenber = 24/2
M: 24/2
L: 1/16
K: C _1/4B _3/4e ^3/4f 
Q: 1/4=33
%%MIDI tuningsystem comma53
c4 d6c2 ^f2_7/8ed d4 z4 c2d4c2  | \
w:   | 
d3^f _7/8e2d2 c3f e2d2 dedc B2cd c2de dcB2  | 
w:   | 
z4 d2_7/8e2 d4 ^c4 z2d4e2 g^fed c2B2  | \
w:   | 
^c2d4cB c3_7/8e d4 z4 d2e2 e3d g4  | 
w:   | 
_bag^f f_7/8eed d3^c f2ed d8 z8  | \
w:   | 
^f2_7/8e4f2 e2d4c4d4c4d2 e2d2  | 
w:   | 
c2B2 c2B2 ^f4 _7/8edd4z4c2 d4 d2d3fe2 d2c3fe2 d2de dcB2 cdc2 dedc B2z4d2 e2d4^c4z2 d4 e2gf edc2 B2c2  | 
w:   | 
d4 ^cBc4d4z4d2 _7/8e2e3dg4_ba  | g^ff_7/8e edd3^cf2 edd12z4f2  | 
w:   |   | 
_7/8e4 d2d2 c2B2 c2d2 e4 d2^c2 d2e2 ^fgf2  | \
w:   | 
_7/8e2e^f edd3^cfe ded4z4c2 d4 d2d3fe2 d2=c3fe2 d2d3cB2 c2B2 c6c6 B2d3cB4z2 B4 d2c2 d4 cBc2  | 
w:   | 
d2c2 B2c3_7/8ed4z4A2 A2B2 c2d4dc  | \
w:   | 
BAG4_7/8e2 de^f2 edz2 d4 cBc2 B2cf edd3ccd cBB2 ^ABcd cBB8z8|
w:   | 


